assets/SketchLogo.svg

<svg width="64" height="64" viewBox="0 0 64 64" fill="none" xmlns="http://www.w3.org/2000/svg">
<path d="M61.1299 25.0125L47.1299 9.01255C46.989 8.85146 46.8153 8.72238 46.6204 8.63398C46.4255 8.54558 46.2139 8.49992 45.9999 8.50005H17.9999C17.7868 8.49835 17.5759 8.54207 17.381 8.62828C17.1862 8.7145 17.0119 8.84123 16.8699 9.00005L2.86989 25C2.62834 25.279 2.49811 25.6373 2.5041 26.0063C2.5101 26.3752 2.6519 26.7291 2.90239 27L30.9024 57C31.0427 57.1507 31.2126 57.2709 31.4014 57.353C31.5903 57.4352 31.794 57.4776 31.9999 57.4776C32.2058 57.4776 32.4095 57.4352 32.5983 57.353C32.7871 57.2709 32.957 57.1507 33.0974 57L61.0974 27C61.3444 26.7298 61.4841 26.3785 61.4901 26.0125C61.4961 25.6464 61.368 25.2907 61.1299 25.0125ZM18.9849 27.5L27.6349 49.1225L7.45239 27.5H18.9849ZM41.7849 27.5L31.9999 51.96L22.2149 27.5H41.7849ZM22.9999 24.5L31.9999 12.5L40.9999 24.5H22.9999ZM45.0149 27.5H56.5474L36.3649 49.1225L45.0149 27.5ZM56.6949 24.5H44.7499L34.9999 11.5H45.3199L56.6949 24.5ZM18.6799 11.5H28.9999L19.2499 24.5H7.30489L18.6799 11.5Z" fill="#50CDE4"/>
</svg>

<svg xmlns="http://www.w3.org/2000/svg" width="64" height="64" fill="none"><path fill="#50CDE4" d="m61.13 25.013-14-16A1.5 1.5 0 0 0 46 8.5H18a1.5 1.5 0 0 0-1.13.5l-14 16a1.5 1.5 0 0 0 .032 2l28 30a1.5 1.5 0 0 0 2.195 0l28-30a1.5 1.5 0 0 0 .033-1.988M18.985 27.5l8.65 21.623L7.452 27.5zm22.8 0L32 51.96 22.215 27.5zM23 24.5l9-12 9 12zm22.015 3h11.532L36.365 49.123zm11.68-3H44.75L35 11.5h10.32zm-38.015-13H29l-9.75 13H7.305z"/></svg>
